X:212
T:Les Bohemes
C:Laurence Beaudry
N: Laurence Beaudry, Reproduced with permission
Z:robin.beech@mcgill.ca
R:reel
M:4/4
L:1/8
K:Dmin
A,DDF EA,DF | ECEG FDEC | B,DFD EGcB | Aage cAFD |
A,DDF ECEG | FDFA GEGc | Afge cAFD | GBAG FDD2 :|
fdAF GBAG | FAdA BGEG | FAdf ege^c |
abge agfe | dAFA GBAG | FAdA BGEG |1
FAdA Bdgd | ^cea^g a3g :|2 FAdA GBdB | A^cef d4 |]
